X:119
T: Gestern Abend in der stillen Ruh
N: D0176
O: Europa, Mitteleuropa, Deutschland, Untermainfranken, Spessart
N: dritte und fuenfte Zeile rhythmisch korrigiert; Inzipit = Variante
R: Liebes - Lied
M: 2/4
L: 1/16
K: F
F2G2 | A4A4 | A2B2c2d2 | c4B2
A2G2A2 | B3BB2d2c2B2 | B4A4
F2G2 | A4A4 | A2B2c2d2c4 | B2
A2G2A2 | B3BB2d2c2B2 | B4A4
cccd | c6B2B4 | z2B2B2d2 | d3cc4
cccd | c6B2B4 | z2B2B2d2 | d3cc4
F2G2 | A4A4 | A2B2c2d2 | c2c2B2
G2c3B | B4A4z4

